X: 158
M: 2/4
L: 1/16
K: A
|:\
a2e2a2e2 | cde2 c2A2 | E2A2E2B2 | cdcB A2E2 |\
a2e2a2e2 | cde2 c2A2 | E2B2 c2dB | A4 A,4 :|
|:\
e2cd e2dc | d2f2 b4 | d2Bc d2cB | c2e2 a4 |\

